Papirus-Light/16x16/actions/fcitx-skk.svg

<svg xmlns="http://www.w3.org/2000/svg" width="16" height="16" version="1.1">
 <defs>
  <style id="current-color-scheme" type="text/css">
   .ColorScheme-Text { color:#31363b; } .ColorScheme-Highlight { color:#3daee9; }
  </style>
 </defs>
 <path style="fill:currentColor" class="ColorScheme-Text" d="M 2,0 C 0.892,0 0,0.8919999 0,2 v 12 c 0,1.108 0.892,2 2,2 h 12 c 1.108,0 2,-0.892 2,-2 V 2 C 16,0.8919999 15.108,0 14,0 Z M 5.9785156,4 H 6.978516 V 8.271484 L 9.271484,5.978516 H 9.978516 V 4 h 1 v 4.271484 l 2.292968,-2.292968 h 1.414063 l -3,3 3,3 H 13.271484 L 10.978516,9.685547 v 2.292969 H 10.685547 9.978516 9.271484 L 6.978516,9.685547 v 2.292969 H 5.9785156 v -2 c 0,0.58333 -0.1536334,1.110665 -0.5214844,1.478515 -0.367851,0.36785 -0.8951826,0.521485 -1.4785156,0.521485 C 3.3951826,11.978516 2.867851,11.824881 2.5,11.457031 2.132149,11.089181 1.9785156,10.561846 1.9785156,9.978516 h 1 c 0,0.41666 0.096367,0.639334 0.2285156,0.771484 0.132149,0.132116 0.3548174,0.228516 0.7714844,0.228516 C 4.3951826,10.978516 4.617851,10.882146 4.75,10.75 4.882146,10.61785 4.9785156,10.395176 4.9785156,9.978516 4.9785156,9.561846 4.8821486,9.339181 4.75,9.207031 4.617851,9.074925 4.3951826,8.978516 3.9785156,8.978516 3.3951826,8.978516 2.867851,8.824881 2.5,8.457031 2.132149,8.089181 1.9785156,7.561846 1.9785156,6.978516 1.9785156,6.395176 2.132149,5.86785 2.5,5.5 2.867851,5.13215 3.3951826,4.9785156 3.9785156,4.9785156 4.5618486,4.9785156 5.0891803,5.13215 5.4570312,5.5 5.8248823,5.86785 5.9785156,6.395176 5.9785156,6.978516 Z m 0,2.978516 h -1 C 4.9785156,6.561846 4.8821486,6.339181 4.75,6.207031 4.617851,6.074925 4.3951826,5.978516 3.9785156,5.978516 c -0.416667,0 -0.6393353,0.09637 -0.7714844,0.228515 -0.132146,0.13215 -0.2285156,0.354815 -0.2285156,0.771485 0,0.41666 0.096367,0.639334 0.2285156,0.771484 0.132149,0.132116 0.3548174,0.228516 0.7714844,0.228516 0.583333,0 1.1106647,0.153634 1.4785156,0.521484 0.3678511,0.36785 0.5214844,0.895176 0.5214844,1.478516 z M 9.978516,6.685547 7.685547,8.978516 9.978516,11.271484 Z"/>
</svg>

<svg xmlns="http://www.w3.org/2000/svg" width="16" height="16" version="1.1">
 <defs>
  <style id="current-color-scheme" type="text/css">
   .ColorScheme-Text { color:#31363b; } .ColorScheme-Highlight { color:#3daee9; }
  </style>
 </defs>
 <path style="fill:currentColor" class="ColorScheme-Text" d="M 2,0 C 0.892,0 0,0.892 0,2 V 14 C 0,15.108 0.892,16 2,16 H 14 C 15.108,16 16,15.108 16,14 V 2 C 16,0.892 15.108,0 14,0 Z M 6,4 H 7 V 8.293 L 9.293,6 H 10 V 4 H 11 V 8.293 L 13.293,6 H 14.707 L 11.707,9 14.707,12 H 13.293 L 11,9.707 V 12 H 9.293 L 7,9.707 V 12 H 6 V 10 C 6,10.583 5.8455,11.111 5.4785,11.479 5.1105,11.846 4.583,12 4,12 3.417,12 2.8895,11.846 2.5215,11.479 2.1545,11.111 2,10.583 2,10 H 3 C 3,10.417 3.0955,10.639 3.2285,10.771 3.3605,10.904 3.583,11 4,11 4.417,11 4.6395,10.904 4.7715,10.771 4.9045,10.639 5,10.417 5,10 5,9.583 4.9045,9.3605 4.7715,9.2285 4.6395,9.0955 4.417,9 4,9 3.417,9 2.8895,8.8455 2.5215,8.4785 2.1545,8.1105 2,7.583 2,7 2,6.417 2.1545,5.8895 2.5215,5.5215 2.8895,5.1545 3.417,5 4,5 4.583,5 5.1105,5.1545 5.4785,5.5215 5.8455,5.8895 6,6.417 6,7 Z M 6,7 H 5 C 5,6.583 4.9045,6.3605 4.7715,6.2285 4.6395,6.0955 4.417,6 4,6 3.583,6 3.3605,6.0955 3.2285,6.2285 3.0955,6.3605 3,6.583 3,7 3,7.417 3.0955,7.6395 3.2285,7.7715 3.3605,7.9045 3.583,8 4,8 4.583,8 5.1105,8.1545 5.4785,8.5215 5.8455,8.8895 6,9.417 6,10 Z M 10,6.707 7.707,9 10,11.293 Z"/>
</svg>
